src/public/images/logos/f1-logo-red.svg

<?xml version="1.0" encoding="UTF-8" standalone="no"?>
<!DOCTYPE svg PUBLIC "-//W3C//DTD SVG 1.1//EN" "http://www.w3.org/Graphics/SVG/1.1/DTD/svg11.dtd">
<svg height="100%" style="fill-rule:nonzero;clip-rule:evenodd;stroke-linecap:round;stroke-linejoin:round;" xmlnsXlink="http://www.w3.org/1999/xlink" xmlns="http://www.w3.org/2000/svg" xmlSpace="preserve" width="100%" version="1.1" viewBox="0 0 120 30">
  <defs />
  <g id="Logos-/-F1-logo-red">
    <path
      d="M101.087+30L101.712+30L101.712+27.1069L101.722+27.1069L102.762+30L103.302+30L104.342+27.1069L104.352+27.1069L104.352+30L104.977+30L104.977+26.2512L104.064+26.2512L103.056+29.1863L103.045+29.1863L102.011+26.2512L101.087+26.2512L101.087+30ZM97.6274+26.8181L98.8137+26.8181L98.8137+30L99.4699+30L99.4699+26.8181L100.662+26.8181L100.662+26.2512L97.6274+26.2512L97.6274+26.8181ZM89.9999+30L120+0L101.944+0L71.9443+30L89.9999+30ZM85.6987+13.065L49.3818+13.065C38.3137+13.065+36.3768+13.6519+31.6362+18.3925C27.2024+22.8263+20.0006+30+20.0006+30L35.7324+30L39.4856+26.2469C41.9531+23.7794+43.2256+23.5238+48.4068+23.5238L75.2406+23.5238L85.6987+13.065ZM31.1518+16.2531C27.8774+19.3425+20.7531+26.2631+16.9131+30L-6.25e-05+30C-6.25e-05+30+13.5524+16.4869+21.0849+9.0725C28.8456+1.685+32.7143+0+46.9487+0L98.7643+0L87.5449+11.2188L48.0012+11.2188C37.9993+11.2188+35.7518+11.9119+31.1518+16.2531Z"
      opacity="1"
      fill="#ee0000"
    />
  </g>
</svg>

<svg xmlns="http://www.w3.org/2000/svg" viewBox="0 0 120 30" clip-rule="evenodd" stroke-linecap="round" stroke-linejoin="round"><path d="M101.087 30h.625v-2.893h.01l1.04 2.893h.54l1.04-2.893h.01V30h.625v-3.749h-.913l-1.008 2.935h-.011l-1.034-2.935h-.924V30zm-3.46-3.182h1.187V30h.656v-3.182h1.192v-.567h-3.035v.567zM90 30l30-30h-18.056l-30 30H90zm-4.301-16.935H49.382c-11.068 0-13.005.587-17.746 5.327A10905.28 10905.28 0 0120.001 30h15.731l3.754-3.753c2.467-2.468 3.74-2.723 8.92-2.723h26.835l10.458-10.459zm-54.547 3.188C27.877 19.343 20.753 26.263 16.913 30H0S13.552 16.487 21.085 9.072C28.845 1.685 32.715 0 46.949 0h51.815l-11.22 11.219H48.002c-10.002 0-12.25.693-16.85 5.034z" fill="#e00"/></svg>
